; generated by Slic3r 1.3.0 on 2018-12-07 at 11:54:47

; external perimeters extrusion width = 0.55mm (4.37mm^3/s)
; perimeters extrusion width = 0.70mm (11.44mm^3/s)
; infill extrusion width = 0.63mm (13.45mm^3/s)
; solid infill extrusion width = 0.70mm (3.81mm^3/s)
; top infill extrusion width = 0.70mm (2.86mm^3/s)

M107
M104 S200 ; set temperature
G28 ; home all axes
G1 Z5 F5000 ; lift nozzle

; Filament gcode

M109 S200 ; set temperature and wait for it to be reached
G21 ; set units to millimeters
G90 ; use absolute coordinates
M82 ; use absolute distances for extrusion
G92 E0
G1 Z0.350 F7800.000
G1 E-2.00000 F2400.00000
G92 E0
G1 X88.871 Y78.215 F7800.000
G1 E2.00000 F2400.00000
G1 F1800
G1 X90.194 Y77.269 E2.05031
G1 X91.907 Y76.340 E2.11062
G1 X92.792 Y75.940 E2.14066
G1 X94.560 Y75.294 E2.19890
G1 X95.687 Y74.990 E2.23502
G1 X98.340 Y75.011 E2.31711
G1 X105.236 Y76.478 E2.53525
G1 X106.316 Y76.806 E2.57017
G1 X108.142 Y77.536 E2.63103
G1 X109.047 Y77.980 E2.66220
G1 X110.756 Y78.987 E2.72357
G1 X111.546 Y79.533 E2.75331
G1 X112.449 Y80.397 E2.79197
G1 X113.634 Y82.360 E2.86293
G1 X114.015 Y83.817 E2.90952
G1 X116.301 Y99.858 E3.41086
G1 X116.350 Y100.306 E3.42479
G1 X116.376 Y100.787 E3.43970
G1 X116.369 Y103.622 E3.52743
G1 X116.340 Y104.237 E3.54648
G1 X116.304 Y104.613 E3.55815
G1 X115.945 Y106.160 E3.60729
G1 X115.757 Y106.654 E3.62367
G1 X115.202 Y107.713 E3.66064
G1 X115.091 Y107.884 E3.66697
G1 X113.989 Y109.186 E3.71974
G1 X113.830 Y109.331 E3.72641
G1 X113.044 Y109.946 E3.75729
G1 X112.336 Y110.392 E3.78316
G1 X111.827 Y110.652 E3.80085
G1 X111.262 Y110.904 E3.82001
G1 X110.569 Y111.150 E3.84275
G1 X110.287 Y111.233 E3.85185
G1 X109.277 Y111.445 E3.88376
G1 X108.852 Y111.497 E3.89704
G1 X108.051 Y111.541 E3.92184
G1 X107.372 Y111.527 E3.94285
G1 X106.943 Y111.496 E3.95616
G1 X91.625 Y109.729 E4.43328
G1 X89.866 Y109.275 E4.48946
G1 X89.098 Y108.944 E4.51535
G1 X88.679 Y108.724 E4.53000
G1 X87.779 Y108.170 E4.56270
G1 X87.303 Y107.820 E4.58097
G1 X86.737 Y107.329 E4.60416
G1 X86.037 Y106.576 E4.63597
G1 X85.891 Y106.392 E4.64323
G1 X85.173 Y105.272 E4.68439
G1 X85.063 Y105.055 E4.69194
G1 X84.694 Y104.177 E4.72141
G1 X84.570 Y103.789 E4.73401
G1 X84.371 Y102.967 E4.76016
G1 X84.259 Y102.075 E4.78799
G1 X84.147 Y99.649 E4.86313
G1 X84.135 Y99.027 E4.88237
G1 X84.172 Y98.278 E4.90559
G1 X84.245 Y97.730 E4.92270
G1 X86.747 Y82.192 E5.40964
G1 X87.040 Y81.035 E5.44658
G1 X88.830 Y78.277 E5.54830
G1 E3.54830 F2400.00000
G92 E0
G1 X108.133 Y103.317 F7800.000
G1 E2.00000 F2400.00000
G1 F1800
G1 X107.741 Y103.308 E2.01214
G1 X106.836 Y103.125 E2.04070
G1 X106.029 Y102.861 E2.06696
G1 X106.334 Y102.243 E2.08827
G1 X106.535 Y102.291 E2.09467
G1 X107.056 Y102.299 E2.11080
G1 X107.237 Y102.250 E2.11660
G1 X107.561 Y102.537 E2.12999
G1 X108.092 Y102.663 E2.14688
G1 X108.128 Y103.242 E2.16482
G1 X108.759 Y103.667 F7800.000
G1 F1800
G1 X108.599 Y103.771 E2.17072
G1 X108.230 Y103.916 E2.18298
G1 X107.874 Y103.941 E2.19404
G1 X107.480 Y103.905 E2.20628
G1 X106.689 Y103.732 E2.23133
G1 X105.981 Y103.504 E2.25435
G1 X105.752 Y103.399 E2.26213
G1 X105.598 Y103.289 E2.26800
G1 X105.418 Y103.077 E2.27661
G1 X105.333 Y102.924 E2.28200
G1 X105.461 Y102.600 E2.29279
G1 X106.042 Y101.421 E2.33346
G1 X106.223 Y101.575 E2.34082
G1 X106.613 Y101.667 E2.35321
G1 X106.978 Y101.673 E2.36450
G1 X107.398 Y101.559 E2.37800
G1 X107.858 Y101.965 E2.39699
G1 X108.507 Y102.100 E2.41748
G1 X108.719 Y102.050 E2.42424
G1 X108.720 Y102.688 E2.44400
G1 X108.761 Y103.592 E2.47201
G1 E0.47201 F2400.00000
G92 E0
G1 X108.488 Y101.462 F7800.000
G1 E2.00000 F2400.00000
G1 F1800
G1 X108.812 Y101.385 E2.01029
G1 X109.401 Y101.030 E2.03158
G1 X109.397 Y101.553 E2.04776
G1 X109.344 Y102.273 E2.07011
G1 X109.345 Y102.669 E2.08234
G1 X109.392 Y103.429 E2.10590
G1 X109.375 Y103.819 E2.11799
G1 X109.322 Y103.961 E2.12268
G1 X109.256 Y104.062 E2.12642
G1 X109.152 Y104.157 E2.13078
G1 X108.898 Y104.321 E2.14013
G1 X108.578 Y104.466 E2.15100
G1 X108.355 Y104.531 E2.15819
G1 X108.046 Y104.567 E2.16780
G1 X107.665 Y104.558 E2.17961
G1 X107.177 Y104.496 E2.19483
G1 X107.146 Y104.463 E2.19625
G1 X106.541 Y104.340 E2.21533
G1 X105.750 Y104.086 E2.24104
G1 X105.437 Y103.942 E2.25170
G1 X105.201 Y103.773 E2.26066
G1 X105.074 Y103.655 E2.26605
G1 X104.894 Y103.421 E2.27520
G1 X104.778 Y103.211 E2.28261
G1 X104.707 Y102.965 E2.29052
G1 X104.714 Y102.792 E2.29588
G1 X104.890 Y102.347 E2.31069
G1 X105.475 Y101.159 E2.35167
G1 X105.812 Y100.205 E2.38296
G1 X106.239 Y100.767 E2.40480
G1 X106.514 Y101.002 E2.41596
G1 X106.691 Y101.043 E2.42159
G1 X106.899 Y101.047 E2.42804
G1 X107.071 Y101.000 E2.43355
G1 X107.246 Y100.896 E2.43987
G1 X107.646 Y100.524 E2.45676
G1 X107.932 Y101.196 E2.47937
G1 X108.155 Y101.394 E2.48860
G1 X108.414 Y101.449 E2.49680
G1 X108.679 Y101.735 F7800.000
G1 X107.797 Y102.958 F7800.000
G1 F1800
G1 X107.401 Y102.870 E2.49727
G1 X106.656 Y102.605 E2.49819
G1 X106.485 Y102.643 F7800.000
G1 F1800
G1 X106.810 Y102.698 E2.49992
G1 F1800
G1 X107.124 Y102.735 E2.50270
G1 X107.158 Y102.597 E2.50395
G1 E0.50395 F2400.00000
G92 E0
G1 X94.589 Y100.737 F7800.000
G1 E2.00000 F2400.00000
G1 F1800
G1 X94.669 Y100.907 E2.00581
G1 X94.213 Y101.215 E2.02284
G1 X93.816 Y101.389 E2.03625
G1 X92.690 Y101.543 E2.07142
G1 X92.462 Y101.412 E2.07954
G1 X92.468 Y100.643 E2.10334
G1 X93.170 Y100.281 E2.12778
G1 X94.259 Y100.147 E2.16174
G1 X94.553 Y100.672 E2.18033
G1 X94.504 Y99.305 F7800.000
G1 F1800
G1 X95.145 Y100.451 E2.22098
G1 X95.256 Y100.686 E2.22901
G1 X95.307 Y100.866 E2.23480
G1 X95.265 Y101.076 E2.24142
G1 X95.051 Y101.404 E2.25353
G1 X94.516 Y101.765 E2.27352
G1 X93.986 Y101.996 E2.29138
G1 X92.609 Y102.184 E2.33440
G1 X92.399 Y102.096 E2.34143
G1 X92.161 Y101.960 E2.34992
G1 X91.943 Y101.793 E2.35842
G1 X91.856 Y101.623 E2.36434
G1 X91.837 Y101.433 E2.37023
G1 X91.846 Y100.239 E2.40718
G1 X91.823 Y99.990 E2.41492
G1 X92.418 Y99.965 E2.43335
G1 X92.832 Y99.752 E2.44774
G1 X93.140 Y99.470 E2.46066
G1 X93.355 Y99.628 E2.46894
G1 X94.155 Y99.531 E2.49385
G1 X94.441 Y99.346 E2.50440
G1 X93.936 Y98.928 F7800.000
G1 F1800
G1 X94.189 Y98.765 E2.51371
G1 X94.294 Y98.648 E2.51857
G1 X94.660 Y98.113 E2.53863
G1 X95.141 Y99.165 E2.57444
G1 X95.701 Y100.166 E2.60993
G1 X95.843 Y100.466 E2.62019
G1 X95.913 Y100.711 E2.62809
G1 X95.936 Y100.866 E2.63293
G1 X95.906 Y101.133 E2.64125
G1 X95.831 Y101.352 E2.64842
G1 X95.488 Y101.877 E2.66782
G1 X95.359 Y102.022 E2.67381
G1 X95.192 Y102.141 E2.68017
G1 X95.134 Y102.101 E2.68233
G1 X94.818 Y102.315 E2.69414
G1 X94.157 Y102.604 E2.71646
G1 X92.592 Y102.817 E2.76534
G1 X92.472 Y102.805 E2.76905
G1 X92.122 Y102.658 E2.78080
G1 X91.821 Y102.486 E2.79152
G1 X91.594 Y102.320 E2.80023
G1 X91.377 Y102.085 E2.81014
G1 X91.296 Y101.924 E2.81571
G1 X91.241 Y101.750 E2.82136
G1 X91.212 Y101.462 E2.83030
G1 X91.221 Y100.265 E2.86734
G1 X91.171 Y99.720 E2.88429
G1 X91.132 Y99.501 E2.89117
G1 X91.098 Y98.978 E2.90739
G1 X91.726 Y99.295 E2.92918
G1 X91.922 Y99.361 E2.93556
G1 X92.255 Y99.347 E2.94586
G1 X92.471 Y99.235 E2.95339
G1 X92.615 Y99.104 E2.95942
G1 X92.749 Y98.828 E2.96892
G1 X92.892 Y98.416 E2.98238
G1 X93.162 Y98.711 E2.99476
G1 X93.525 Y98.978 E3.00871
G1 X93.862 Y98.937 E3.01920
G1 X94.155 Y99.134 F7800.000
G1 X94.181 Y100.648 F7800.000
G1 F1800
G1 X93.802 Y100.775 E3.02696
G1 F1800
G1 X93.655 Y100.816 E3.03058
G1 X93.347 Y100.855 E3.03794
G1 X92.967 Y100.976 E3.04741
G1 F1800
G1 X92.777 Y101.036 E3.05136
G1 E1.05136 F2400.00000
G92 E0
G1 X95.470 Y85.456 F7800.000
G1 E2.00000 F2400.00000
G1 F1800
G1 X95.269 Y85.446 E2.00623
G1 X95.173 Y85.395 E2.00960
G1 X95.092 Y85.318 E2.01305
G1 X94.927 Y85.046 E2.02289
G1 X94.594 Y84.301 E2.04815
G1 X94.954 Y84.272 E2.05932
G1 X95.581 Y83.926 E2.08149
G1 X95.730 Y83.532 E2.09451
G1 X96.369 Y83.713 E2.11507
G1 X97.023 Y83.167 E2.14141
G1 X97.468 Y84.154 E2.17491
G1 X97.527 Y84.347 E2.18115
G1 X97.531 Y84.569 E2.18803
G1 X97.478 Y84.699 E2.19236
G1 X97.275 Y84.887 E2.20094
G1 X96.777 Y85.144 E2.21825
G1 X96.177 Y85.325 E2.23766
G1 X95.777 Y85.414 E2.25032
G1 X95.545 Y85.446 E2.25759
G1 X94.770 Y83.660 F7800.000
G1 F1800
G1 X95.078 Y83.490 E2.26847
G1 X95.204 Y83.155 E2.27954
G1 X95.270 Y82.621 E2.29619
G1 X95.772 Y82.895 E2.31390
G1 X96.222 Y83.022 E2.32835
G1 X96.562 Y82.738 E2.34205
G1 X96.781 Y82.417 E2.35408
G1 X96.988 Y81.924 E2.37061
G1 X97.315 Y82.388 E2.38817
G1 X97.645 Y83.026 E2.41040
G1 X98.055 Y83.934 E2.44122
G1 X98.139 Y84.215 E2.45029
G1 X98.163 Y84.395 E2.45592
G1 X98.152 Y84.677 E2.46466
G1 X98.099 Y84.848 E2.47018
G1 X97.960 Y85.099 E2.47906
G1 X97.828 Y85.239 E2.48501
G1 X97.632 Y85.403 E2.49291
G1 X97.317 Y85.581 E2.50411
G1 X97.013 Y85.724 E2.51451
G1 X96.327 Y85.932 E2.53668
G1 X95.887 Y86.030 E2.55063
G1 X95.498 Y86.082 E2.56280
G1 X95.177 Y86.067 E2.57272
G1 X95.012 Y86.017 E2.57807
G1 X94.804 Y85.907 E2.58534
G1 X94.616 Y85.728 E2.59337
G1 X94.369 Y85.327 E2.60794
G1 X94.061 Y84.640 E2.63123
G1 X93.623 Y83.428 E2.67111
G1 X94.425 Y83.688 E2.69722
G1 X94.695 Y83.666 E2.70559
G1 X95.020 Y83.907 F7800.000
G1 X95.195 Y84.495 F7800.000
G1 F1800
G1 X96.417 Y84.481 E2.75537
G1 F1800
G1 X96.503 Y84.469 E2.75862
G1 X96.698 Y84.381 E2.76669
G1 X97.102 Y84.102 E2.78519
G1 E0.78519 F2400.00000
G92 E0
G1 X103.216 Y86.010 F7800.000
G1 E2.00000 F2400.00000
G1 F1800
G1 X103.175 Y85.925 E2.00290
G1 X103.183 Y85.781 E2.00738
G1 X103.277 Y85.494 E2.01672
G1 X103.417 Y85.190 E2.02706
G1 X103.677 Y84.711 E2.04393
G1 X104.285 Y85.056 E2.06555
G1 X105.026 Y85.116 E2.08855
G1 X105.129 Y85.390 E2.09760
G1 X105.705 Y85.744 E2.11852
G1 X106.107 Y85.828 E2.13124
G1 X105.749 Y86.525 E2.15549
G1 X105.563 Y86.788 E2.16546
G1 X105.498 Y86.851 E2.16824
G1 X105.417 Y86.871 E2.17082
G1 X105.081 Y86.839 E2.18129
G1 X104.822 Y86.771 E2.18956
G1 X103.791 Y86.401 E2.22346
G1 X103.524 Y86.274 E2.23261
G1 X103.271 Y86.061 E2.24285
G1 E0.24285 F2400.00000
G92 E0
G1 X105.939 Y85.155 F7800.000
G1 E2.00000 F2400.00000
G1 F1800
G1 X106.226 Y85.214 E2.00909
G1 X106.688 Y85.145 E2.02355
G1 X107.101 Y85.033 E2.03677
G1 X106.968 Y85.449 E2.05027
G1 X106.857 Y85.719 E2.05930
G1 X106.411 Y86.626 E2.09058
G1 X106.276 Y86.861 E2.09897
G1 X106.040 Y87.195 E2.11163
G1 X105.877 Y87.354 E2.11868
G1 X105.735 Y87.435 E2.12371
G1 X105.421 Y87.500 E2.13364
G1 X104.970 Y87.456 E2.14765
G1 X104.637 Y87.368 E2.15833
G1 X103.550 Y86.979 E2.19405
G1 X103.190 Y86.807 E2.20639
G1 X102.950 Y86.615 E2.21590
G1 X102.753 Y86.434 E2.22417
G1 X102.671 Y86.320 E2.22850
G1 X102.597 Y86.166 E2.23379
G1 X102.546 Y85.971 E2.24003
G1 X102.564 Y85.663 E2.24957
G1 X102.695 Y85.266 E2.26252
G1 X102.857 Y84.910 E2.27462
G1 X103.251 Y84.186 E2.30011
G1 X103.420 Y83.915 E2.31000
G1 X103.773 Y83.421 E2.32879
G1 X103.999 Y84.007 E2.34823
G1 X104.189 Y84.284 E2.35861
G1 X104.473 Y84.445 E2.36871
G1 X104.780 Y84.469 E2.37823
G1 X105.160 Y84.283 E2.39133
G1 X105.450 Y84.110 E2.40177
G1 X105.519 Y84.652 E2.41867
G1 X105.638 Y84.970 E2.42917
G1 X105.875 Y85.115 E2.43777
G1 X105.967 Y85.447 F7800.000
G1 X105.185 Y86.191 F7800.000
G1 F1800
G1 X105.023 Y86.122 E2.44326
G1 F1800
G1 X104.660 Y85.948 E2.45721
G1 F1800
G1 X104.491 Y85.840 E2.46501
G1 Z0.650 F7800.000
G1 E0.46501 F2400.00000
G92 E0
G1 X106.441 Y102.347 F7800.000
G1 E2.00000 F2400.00000
G1 F900
G1 X106.904 Y102.397 E2.01257
G1 X107.265 Y102.349 E2.02240
G1 X107.368 Y102.430 E2.02593
G1 X107.883 Y102.658 E2.04111
G1 X108.096 Y102.727 E2.04715
G1 X108.187 Y103.203 E2.06022
G1 X108.216 Y103.704 E2.07377
G1 X108.063 Y103.780 E2.07838
G1 X107.932 Y103.802 E2.08197
G1 X107.651 Y103.791 E2.08954
G1 X107.157 Y103.711 E2.10306
G1 X106.266 Y103.450 E2.12809
G1 X105.922 Y103.306 E2.13815
G1 X105.812 Y103.177 E2.14272
G1 X105.894 Y102.925 E2.14986
G1 X106.308 Y102.310 E2.16987
G1 X106.369 Y102.327 E2.17156
G1 X106.020 Y101.569 F7800.000
G1 F900
G1 X106.561 Y101.721 E2.18673
G1 X106.896 Y101.757 E2.19581
G1 X107.311 Y101.702 E2.20709
G1 X107.424 Y101.666 E2.21030
G1 X107.698 Y101.880 E2.21968
G1 X108.111 Y102.064 E2.23185
G1 X108.389 Y102.154 E2.23975
G1 X108.626 Y102.117 E2.24623
G1 X108.815 Y103.107 E2.27343
G1 X108.845 Y103.363 E2.28038
G1 X108.852 Y103.719 E2.28997
G1 X108.837 Y103.881 E2.29438
G1 X108.761 Y104.076 E2.30002
G1 X108.590 Y104.229 E2.30621
G1 X108.289 Y104.377 E2.31524
G1 X108.138 Y104.418 E2.31947
G1 X107.955 Y104.439 E2.32444
G1 X107.588 Y104.425 E2.33436
G1 X107.028 Y104.334 E2.34966
G1 X106.694 Y104.250 E2.35896
G1 X106.048 Y104.048 E2.37720
G1 X105.570 Y103.848 E2.39119
G1 X105.412 Y103.699 E2.39703
G1 X105.209 Y103.409 E2.40658
G1 X105.168 Y103.218 E2.41185
G1 X105.174 Y103.099 E2.41506
G1 X105.266 Y102.774 E2.42419
G1 X105.326 Y102.638 E2.42820
G1 X105.976 Y101.630 E2.46055
G1 X104.793 Y103.815 F7800.000
G1 F900
G1 X104.694 Y103.637 E2.46476
G1 X104.634 Y103.460 E2.46861
G1 X104.605 Y103.242 E2.47314
G1 X104.617 Y103.008 E2.47797
G1 X104.738 Y102.583 E2.48708
G1 X104.959 Y102.151 E2.49708
G1 X105.276 Y101.699 E2.50846
G1 X105.385 Y101.492 E2.51327
G1 X105.669 Y101.097 E2.52330
G1 X105.769 Y100.994 E2.52627
G1 X105.955 Y100.910 E2.53048
G1 X106.106 Y100.947 E2.53368
G1 X106.259 Y101.054 E2.53752
G1 X106.668 Y101.168 E2.54627
G1 X106.889 Y101.192 E2.55086
G1 X107.189 Y101.152 E2.55711
G1 X107.590 Y101.028 E2.56576
G1 X107.690 Y101.162 E2.56922
G1 X107.989 Y101.396 E2.57704
G1 X108.311 Y101.539 E2.58431
G1 X108.434 Y101.579 E2.58698
G1 X108.552 Y101.561 E2.58942
G1 X108.789 Y101.578 E2.59432
G1 X109.064 Y101.532 E2.60007
G1 X109.162 Y101.935 E2.60861
G1 X109.370 Y103.023 E2.63144
G1 X109.405 Y103.325 E2.63772
G1 X109.414 Y103.740 E2.64626
G1 X109.359 Y104.108 E2.65392
G1 X109.282 Y104.304 E2.65827
G1 X109.205 Y104.423 E2.66120
G1 X109.079 Y104.558 E2.66500
G1 X108.890 Y104.706 E2.66996
G1 X108.489 Y104.903 E2.67916
G1 X108.245 Y104.970 E2.68438
G1 X107.976 Y105.001 E2.68996
G1 X107.532 Y104.984 E2.69912
G1 X106.914 Y104.883 E2.71201
G1 X106.541 Y104.789 E2.71994
G1 X105.856 Y104.575 E2.73474
G1 X105.328 Y104.354 E2.74654
G1 X105.213 Y104.282 E2.74932
G1 X104.996 Y104.077 E2.75549
G1 X104.839 Y103.875 E2.76076
G1 X104.885 Y103.633 F7800.000
G1 X106.231 Y102.977 F7800.000
G1 F1200
G1 X107.109 Y103.027 E2.78326
G1 X107.285 Y103.088 E2.78804
G1 F1200
G1 X107.874 Y103.263 E2.80191
G1 X107.852 Y103.147 F7800.000
G1 F1200
G1 X106.877 Y103.005 E2.82436
G1 X106.586 Y102.944 E2.83115
G1 F1200
G1 X106.294 Y102.884 E2.83726
G1 E0.83726 F2400.00000
G92 E0
G1 X94.692 Y101.626 F7800.000
G1 E2.00000 F2400.00000
G1 F900
G1 X94.254 Y101.832 E2.01303
G1 X93.749 Y101.990 E2.02733
G1 X92.777 Y102.120 E2.05379
G1 X92.554 Y101.943 E2.06145
G1 X92.465 Y101.829 E2.06538
G1 X92.414 Y101.698 E2.06915
G1 X92.428 Y101.168 E2.08347
G1 X92.489 Y100.659 E2.09731
G1 X93.113 Y100.426 E2.11526
G1 X93.322 Y100.257 E2.12250
G1 X94.001 Y100.337 E2.14097
G1 X94.294 Y100.204 E2.14964
G1 X94.594 Y100.602 E2.16310
G1 X94.714 Y100.803 E2.16939
G1 X94.832 Y101.122 E2.17856
G1 X94.867 Y101.319 E2.18397
G1 X94.729 Y101.561 E2.19149
G1 X94.496 Y99.414 F7800.000
G1 F900
G1 X95.123 Y100.247 E2.21962
G1 X95.290 Y100.527 E2.22842
G1 X95.489 Y101.101 E2.24478
G1 X95.503 Y101.305 E2.25030
G1 X95.484 Y101.469 E2.25477
G1 X95.429 Y101.616 E2.25899
G1 X95.203 Y102.012 E2.27130
G1 X95.035 Y102.167 E2.27747
G1 X94.486 Y102.425 E2.29384
G1 X93.892 Y102.612 E2.31064
G1 X93.129 Y102.725 E2.33143
G1 X92.666 Y102.769 E2.34399
G1 X92.435 Y102.652 E2.35099
G1 X92.189 Y102.472 E2.35921
G1 X91.976 Y102.243 E2.36763
G1 X91.856 Y102.035 E2.37412
G1 X91.787 Y101.813 E2.38040
G1 X91.772 Y101.678 E2.38404
G1 X91.793 Y101.118 E2.39918
G1 X91.915 Y100.115 E2.42643
G1 X92.307 Y100.048 E2.43716
G1 X92.794 Y99.866 E2.45117
G1 X93.130 Y99.595 E2.46284
G1 X93.900 Y99.685 E2.48374
G1 X94.427 Y99.445 E2.49937
G1 X94.549 Y98.765 F7800.000
G1 F900
G1 X94.635 Y98.758 E2.50116
G1 X94.899 Y99.018 E2.50881
G1 X95.589 Y99.934 E2.53243
G1 X95.798 Y100.285 E2.54084
G1 X95.967 Y100.743 E2.55092
G1 X96.055 Y101.105 E2.55860
G1 X96.064 Y101.316 E2.56295
G1 X96.047 Y101.520 E2.56717
G1 X95.939 Y101.854 E2.57440
G1 X95.681 Y102.306 E2.58513
